!!!OTL: SCHOEN IST DIE JUGEND
!!!ARE: Europa, Mitteleuropa, Deutschland, Thueringen, Meiningen
!!!SCT: E0543A
!!!YEM: Copyright 1995, estate of Helmut Schaffrath.
**kern
*ICvox
*Ivox
*M3/4
*k[f#c#g#d#]
*E:
{8e
8e
8g#
=1
4b
8g#
8b
8ee
8cc#
=2
4b
8g#}
{8b
8cc#
8b
=3
4a
8f#
8f#
8b
8b
=4
4g#
8r}
{8e
8e
8g#
=5
4b
8g#
8b
8ee
8cc#
=6
4b
8g#}
{8b
8cc#
8b
=7
4a
8f#
8f#
8b
8b
=8
4g#
8r}
{8g#
8g#
8b
=9
8a
8a
8f#
8a
8a
8cc#
=10
4b
8g#}
{8g#
8g#
8b
=11
4a
8f#
8f#
8b
8b
=12
4.g#}
==
!!!AGN: Liebes - Lied
!!!ONB: ESAC (Essen Associative Code) Database: ERK1
!!!AMT: simple triple
!!!AIN: vox
!!!EED: Helmut Schaffrath
!!!EEV: 1.0
*-
